svg/fluentui-system-icons/ic_fluent_panel_left_text_24_filled.svg

<svg width="24" height="24" viewBox="0 0 24 24" fill="none" xmlns="http://www.w3.org/2000/svg">
<path d="M2 7.25C2 5.45507 3.45507 4 5.25 4H18.75C20.5449 4 22 5.45507 22 7.25V16.75C22 18.5449 20.5449 20 18.75 20H5.25C3.45508 20 2 18.5449 2 16.75V7.25ZM10 18.5H18.75C19.7165 18.5 20.5 17.7165 20.5 16.75V7.25C20.5 6.2835 19.7165 5.5 18.75 5.5H10V18.5ZM4.75 8.5C4.75 8.91421 5.08579 9.25 5.5 9.25H6.75C7.16421 9.25 7.5 8.91421 7.5 8.5C7.5 8.08579 7.16421 7.75 6.75 7.75H5.5C5.08579 7.75 4.75 8.08579 4.75 8.5ZM4.75 12C4.75 12.4142 5.08579 12.75 5.5 12.75H6.75C7.16421 12.75 7.5 12.4142 7.5 12C7.5 11.5858 7.16421 11.25 6.75 11.25H5.5C5.08579 11.25 4.75 11.5858 4.75 12ZM5.5 14.75C5.08579 14.75 4.75 15.0858 4.75 15.5C4.75 15.9142 5.08579 16.25 5.5 16.25H6.75C7.16421 16.25 7.5 15.9142 7.5 15.5C7.5 15.0858 7.16421 14.75 6.75 14.75H5.5Z" fill="#212121"/>
</svg>

<svg xmlns="http://www.w3.org/2000/svg" width="24" height="24"><path d="M2 7.25A3.25 3.25 0 0 1 5.25 4h13.5A3.25 3.25 0 0 1 22 7.25v9.5A3.25 3.25 0 0 1 18.75 20H5.25A3.25 3.25 0 0 1 2 16.75v-9.5Zm8 11.25h8.75a1.75 1.75 0 0 0 1.75-1.75v-9.5a1.75 1.75 0 0 0-1.75-1.75H10v13Zm-5.25-10c0 .414.336.75.75.75h1.25a.75.75 0 0 0 0-1.5H5.5a.75.75 0 0 0-.75.75Zm0 3.5c0 .414.336.75.75.75h1.25a.75.75 0 0 0 0-1.5H5.5a.75.75 0 0 0-.75.75Zm.75 2.75a.75.75 0 0 0 0 1.5h1.25a.75.75 0 0 0 0-1.5H5.5Z"/></svg>
